X: 10
T: The Wind That Shakes The Barley
R: reel
M: 4/4
L: 1/8
K: Dmaj
|: A2 AB AFED | B2 BA BcdB | A2 AB AFED |[1 gfed BcdB :|[2 gfed B2 d2 ||f2 fd g2 ge | f2 fd Bcde | f2 fd g2 ge | afed Bcde |f2 fd g2 ge | f2 fd edBA | defg afba | gfed B2 d2 |]


Tune 116	Setting 12712

